markup/public/images/card-04.svg

<svg width="48" height="48" viewBox="0 0 48 48" fill="none" xmlns="http://www.w3.org/2000/svg">
<g clip-path="url(#clip0)">
<path d="M32.2386 18.9425C31.1734 18.2781 30.1165 17.6138 29.0513 16.9411C28.3856 16.5259 28.1276 15.9363 28.2941 15.2553C28.577 14.1259 29.6255 13.6775 30.6075 14.292C33.1457 15.8698 35.6755 17.4726 38.2219 19.0422C39.0292 19.5404 39.1457 20.2546 38.9875 20.9688C38.8378 21.6664 38.2219 22.0401 37.3565 22.0401C32.5548 22.0401 27.7615 22.0401 22.9598 22.0401C18.9071 22.0401 14.8627 22.0401 10.81 22.0318C10.5104 22.0318 10.1942 22.0152 9.91127 21.9155C9.20391 21.6747 8.84608 20.9771 8.97923 20.2131C9.09573 19.5238 9.75315 19.0089 10.5604 19.0089C12.5326 19.0006 14.4966 19.0089 16.4688 19.0089C21.6283 19.0089 26.7878 19.0089 31.9473 19.0089C32.0305 19.0089 32.1138 19.0089 32.197 19.0089C32.2136 19.0006 32.2303 18.9674 32.2386 18.9425Z" fill="#67717D"/>
<path d="M15.7365 30.1536C16.7767 30.8097 17.8169 31.4657 18.8572 32.1301C19.681 32.6616 19.8807 33.4754 19.3981 34.3059C18.9237 35.1114 18.1415 35.3107 17.3509 34.8125C15.3121 33.5253 13.2816 32.2298 11.2511 30.9426C10.785 30.6436 10.319 30.3446 9.853 30.054C9.11236 29.5806 8.81278 28.908 9.02915 28.1606C9.23719 27.4547 9.84468 27.0478 10.7268 27.0478C13.6893 27.0478 16.6602 27.0478 19.6228 27.0478C25.4563 27.0478 31.2982 27.0478 37.1318 27.0478C37.423 27.0478 37.7226 27.0395 37.9972 27.1142C38.7379 27.3218 39.1457 28.0194 39.0375 28.8249C38.9459 29.5142 38.2885 30.054 37.5312 30.054C32.2635 30.054 26.9959 30.054 21.7282 30.054C19.8308 30.054 17.9334 30.054 16.0278 30.054C15.9362 30.054 15.8447 30.0623 15.7531 30.0623C15.7448 30.0955 15.7448 30.1287 15.7365 30.1536Z" fill="#67717D"/>
<path d="M48 21.4754C47.7337 19.1668 47.1845 16.9329 46.2441 14.7986C43.0569 7.5654 37.6477 2.84844 30 0.772318C28.5936 0.390311 27.1123 0.290657 25.6644 0.0581315C25.5728 0.0415225 25.4813 0.016609 25.3814 0C24.466 0 23.5506 0 22.6352 0C21.8031 0.107958 20.9626 0.174394 20.1304 0.315571C14.1553 1.32872 9.22885 4.17716 5.36755 8.83599C2.81276 11.917 1.16505 15.4381 0.37448 19.3578C0.23301 20.0969 0.124827 20.8443 0 21.5917C0 23.2277 0 24.8554 0 26.4914C0.108183 27.1308 0.208044 27.7619 0.324549 28.4014C1.0319 32.3294 2.64632 35.8505 5.13454 38.9564C8.31345 42.9426 12.3578 45.6913 17.2677 47.1031C18.5742 47.4768 19.9473 47.6512 21.2871 47.9253C21.3786 47.9419 21.4702 47.9751 21.5617 48C23.2011 48 24.8322 48 26.4716 48C27.2705 47.8671 28.086 47.7675 28.8766 47.5848C38.0388 45.4256 44.1054 39.8699 47.0846 30.9592C47.5589 29.5391 47.8336 28.0775 48.0083 26.591V21.4754H48ZM23.9501 45.2595C12.2497 45.2429 2.72954 35.6844 2.74619 23.9668C2.76283 12.3322 12.3329 2.81522 24.0166 2.82353C35.7337 2.83183 45.2788 12.3737 45.2705 24.0747C45.2538 35.7592 35.6921 45.2678 23.9501 45.2595Z" fill="#67717D"/>
</g>
<defs>
<clipPath id="clip0">
<rect width="48" height="48" fill="white"/>
</clipPath>
</defs>
</svg>

<svg width="48" height="48" viewBox="0 0 48 48" fill="none" xmlns="http://www.w3.org/2000/svg"><g clip-path="url(#a)" fill="#67717D"><path d="M32.239 18.942a671.706 671.706 0 0 1-3.188-2c-.665-.416-.923-1.006-.757-1.687.283-1.13 1.331-1.578 2.314-.963 2.538 1.578 5.067 3.18 7.614 4.75.807.498.924 1.213.765 1.927-.15.697-.765 1.071-1.63 1.071H22.96c-4.053 0-8.097 0-12.15-.008-.3 0-.616-.017-.899-.116-.707-.241-1.065-.939-.932-1.703.117-.69.774-1.204 1.581-1.204 1.973-.008 3.937 0 5.909 0h15.728c.017-.008.033-.042.042-.067zM15.736 30.154c1.04.656 2.08 1.312 3.121 1.976.824.532 1.024 1.345.541 2.176-.474.805-1.256 1.005-2.047.507-2.039-1.288-4.07-2.583-6.1-3.87-.466-.3-.932-.598-1.398-.889-.74-.473-1.04-1.146-.824-1.893.208-.706.816-1.113 1.698-1.113h26.405c.291 0 .59-.008.865.066.74.208 1.149.905 1.04 1.71-.091.69-.748 1.23-1.506 1.23H16.028c-.092 0-.183.008-.275.008-.008.034-.008.067-.017.092z"/><path d="M48 21.475c-.266-2.308-.816-4.542-1.756-6.676C43.057 7.565 37.648 2.849 30 .772 28.594.39 27.112.291 25.664.058c-.091-.016-.183-.041-.283-.058h-2.746c-.832.108-1.672.174-2.505.316-5.975 1.013-10.9 3.861-14.762 8.52-2.555 3.081-4.203 6.602-4.994 10.522-.141.739-.25 1.486-.374 2.234v4.9c.108.639.208 1.27.325 1.91.707 3.927 2.321 7.448 4.81 10.554 3.178 3.987 7.223 6.735 12.133 8.147 1.306.374 2.68.548 4.02.822.09.017.182.05.274.075h4.91c.798-.133 1.614-.233 2.405-.415 9.162-2.16 15.228-7.715 18.208-16.626.474-1.42.749-2.881.923-4.368v-5.116H48zM23.95 45.26c-11.7-.017-21.22-9.576-21.204-21.293.017-11.635 9.587-21.152 21.27-21.143 11.718.008 21.263 9.55 21.255 21.25-.017 11.685-9.579 21.194-21.32 21.186z"/></g><defs><clipPath id="a"><path fill="#fff" d="M0 0h48v48H0z"/></clipPath></defs></svg>
